X: 509
T: Ceddin Deden
C: Kaptanzâde Ali Rıza Bey
O: Turkey
F: http://compmusic.upf.edu/node/140
N: huseyni--mars--sofyan--ceddin_deden--kaptanzade_ali_riza_bey
N: makam= huseyni
N: form= mars
N: usul= sofyan = 4/4
M: 4/4
L: 1/16
K: C _2/4B ^3/4f  
Q: 1/4=90
%%MIDI tuningsystem comma53
e4 e4 e4 z4  | e4 e4 e4 z4  | e2ee e2=f2 e2d2 c2e2  | \
w:  ARANAĞME  |   |   | 
d4 d4 dece d4  | 
w:   | 
A4 =f3e d4 z4  | d3c e3d c3B A3B  | c3d B3G A8  | \
w:   |   |   | 
d3c e3d c3B A3B  | 
w:   | 
c3d B3G A8  | A4 e3e e8  | d3e =f3g e8  | \
w:   |  Ced din  de den   |  nes *  lin  ba ban    | 
A4 e3e e8  | d3e =f3g e8  | 
w:  Ced din  de den   |  nes *  lin  ba ban    | 
=f3e d4 e3d c4  | =f4 e3d d8  | =f4 e3d d8  | \
w:  Hep  *  kah ra *  man   |  Türk  mil le ti    |  Or du la rın   | 
e3d c3B A4 d4  | d4 c3d B6G2  | 
w:  pek  *  çok  za man    |  Ver miş ti ler   | 
A3B c3B A4 z4  | =f4 e3d d8  | e3d c3B A4 d4  | \
w:  dün *  ya ya  şan    |  Or du la rın   |  pek  *  çok  za man    | 
d4 c3d B6G2  | 
w:  Ver miş ti ler   | 
A3B c3B A4 z4  | e4 e4 e4 z4  | e4 e4 e4 z4  | \
w:  dün *  ya ya  şan    |  ARANAĞME  |   | 
e2ee e2=f2 e2d2 c2e2  | 
w:   | 
d4 d4 dece d4  | A4 =f3e d4 z4  | d3c e3d c3B A3B  | \
w:   |   |   | 
c3d B3G A8  | 
w:   | 
d3c e3d c3B A3B  | c3d B3G A8  | A4 e3e e8  | \
w:   |   |  Ced din  de den   | 
d3e =f3g e8  | 
w:  nes *  lin  ba ban    | 
A4 e3e e8  | d3e =f3g e8  | =f3e d4 e3d c4  | \
w:  Ced din  de den   |  nes *  lin  ba ban    |  Hep  *  kah ra *  man   | 
=f4 e3d d8  | =f4 e3d d8  | 
w:  Türk  mil le ti    |  Or du la rın   | 
e3d c3B A4 d4  | d4 c3d B6G2  | A3B c3B A4 z4  | \
w:  pek  *  çok  za man    |  Ver miş ti ler   |  dün *  ya ya  şan    | 
=f4 e3d d8  | 
w:  Or du la rın   | 
e3d c3B A4 d4  | d4 c3d B6G2  | A3B c3B A4 z4  | |


